X: 5
T:Huntes Upp
M:3/4
L:1/4
S:Wm Byrd
K:C
EGE|AGD|E/F/GE|AGE|F/G/A2|G/4F/4G/A2|A>GF|_BAF|A>Bc|dcA|G>FE |AGE|G/A/B
 c/C/|F/E/ D/C/ B,/8C/8B,/8A,/8B,/ |C3||
% Output from ABC2Win  Version 2.1 f on 10/8/2002
